site/static/images/icons/rocket_icon_circle.svg

<svg fill="none" height="48" viewBox="-13 -13 52 52" width="48" xmlns="http://www.w3.org/2000/svg"><circle cx="13" cy="13" fill="#ddd" fill-opacity=".2" r="26"/><path clip-rule="evenodd" d="m24.6119 0c-4.061.00017111-7.9557 1.61356-10.8273 4.48525l-.8032.8015c-.5495.5495-1.078 1.12175-1.582 1.71325h-5.60701c-.52293.00016-1.0371.13421-1.49355.38937-.45644.25519-.83993.62299-1.11395 1.06838l-2.992499 4.85455c-.1050459.1706-.1696321.363-.18880786.5624-.01917574.1995.00756806.4007.07818136.5882.0706135.1875.1832215.3564.3291945.4936.145971.1373.321431.2393.512932.2983l5.428499 1.6694c.06475.0893.13825.1751.217.2538l4.25071 4.249c.0805.0805.1645.154.2538.2188l1.6695 5.4284c.0589.1915.161.367.2982.513.1373.1459.3061.2586.4936.3291.1876.0707.3888.0973.5882.0783.1995-.0193.3919-.0839.5625-.1889l4.8545-2.9872c.4454-.274.8132-.6575 1.0684-1.1139.2551-.4566.3892-.9707.3894-1.4936v-5.6123c.5915-.504 1.1637-1.0324 1.7132-1.5819l.8015-.8033c2.8719-2.8708 4.486-6.7648 4.487-10.8255v-.3255c0-.81223-.3227-1.59118-.897-2.165515-.5744-.57433-1.3533-.896985-2.1655-.896985zm-6.237 18.5938c-.154.1049-.3097.2065-.4655.3062l-4.1125 2.6618.959 3.1202 3.4108-2.1c.0637-.0392.1162-.094.1526-.1593.0365-.0652.0556-.1387.0556-.2135zm-11.93851-4.3908 2.6635-4.1125c.1015-.1575.20475-.3115.308-.4655h-3.61725c-.07474-.00002-.14826.01911-.2135.05556-.06526.03646-.12008.08902-.15925.15269l-2.1 3.41245zm9.20501-7.86275c2.3788-2.37841 5.6049-3.71476 8.9688-3.71525h.3255c.116 0 .2273.0461.3094.12813.082.08206.1281.19335.1281.30937v.3255c.0001 1.66623-.3278 3.31618-.9653 4.85566-.6374 1.53945-1.5719 2.93824-2.75 4.11664l-.8032.8014c-1.33 1.33-2.7948 2.5148-4.3733 3.5351l-4.0548 2.625-3.75021-3.7503 2.62501-4.0548c1.0209-1.57873 2.2058-3.04521 3.535-4.37495l.8015-.8015zm5.3585 2.40975c0 .46414-.1844.90925-.5126 1.23744-.3281.32816-.7733.51256-1.2374.51256s-.9093-.1844-1.2374-.51256c-.3283-.32819-.5126-.7733-.5126-1.23744s.1843-.90925.5126-1.23744c.3281-.32818.7733-.51256 1.2374-.51256s.9093.18438 1.2374.51256c.3282.32819.5126.7733.5126 1.23744zm-14.77001 16.73c.2579-.2403.46477-.5301.60823-.8521.14348-.322.22062-.6695.22684-1.0221.00623-.3525-.05861-.7025-.19063-1.0294-.13204-.3269-.32855-.6237-.5778-.8731-.24927-.2492-.54619-.4457-.87304-.5776-.32686-.1322-.67697-.1969-1.02942-.1908-.35247.0063-.70007.0835-1.02207.2268-.32198.1435-.6118.3503-.85211.6083-1.2845 1.2775-1.832249 4.081-2.012499 5.2552-.010658.0634-.006025.1283.01351.1894s.053408.1167.098791.162c.045384.0455.100963.0793.162099.0989.061138.0195.126059.0242.18935.0135 1.174249-.1802 3.977749-.728 5.258749-2.009z" fill="#0075ff" fill-rule="evenodd"/></svg>

<svg width="48" height="48" viewBox="-13 -13 52 52" fill="none" xmlns="http://www.w3.org/2000/svg"><circle cx="13" cy="13" r="26" fill="#DDD" fill-opacity="0.2"/><path fill-rule="evenodd" clip-rule="evenodd" d="M24.6119 0C20.5509 0.000171109 16.6562 1.61356 13.7846 4.48525L12.9814 5.28675C12.4319 5.83625 11.9034 6.4085 11.3994 7H5.79239C5.26946 7.00016 4.75529 7.13421 4.29884 7.38937C3.8424 7.64456 3.45891 8.01236 3.18489 8.45775L0.192391 13.3123C0.0873451 13.4829 0.0227589 13.6753 0.00358314 13.8747C-0.0155926 14.0742 0.0111512 14.2754 0.0817645 14.4629C0.152378 14.6504 0.264986 14.8193 0.410959 14.9565C0.55693 15.0938 0.73239 15.1958 0.923891 15.2548L6.35239 16.9242C6.41714 17.0135 6.49064 17.0993 6.56939 17.178L10.8201 21.427C10.9006 21.5075 10.9846 21.581 11.0739 21.6458L12.7434 27.0742C12.8023 27.2657 12.9044 27.4412 13.0416 27.5872C13.1789 27.7331 13.3477 27.8458 13.5352 27.9163C13.7228 27.987 13.924 28.0136 14.1234 27.9946C14.3229 27.9753 14.5153 27.9107 14.6859 27.8057L19.5404 24.8185C19.9858 24.5445 20.3536 24.161 20.6088 23.7046C20.8639 23.248 20.998 22.7339 20.9982 22.211V16.5987C21.5897 16.0947 22.1619 15.5663 22.7114 15.0168L23.5129 14.2135C26.3848 11.3427 27.9989 7.4487 27.9999 3.388V3.0625C27.9999 2.25027 27.6772 1.47132 27.1029 0.896985C26.5285 0.322655 25.7496 0 24.9374 0H24.6119ZM18.3749 18.5938C18.2209 18.6987 18.0652 18.8003 17.9094 18.9L13.7969 21.5618L14.7559 24.682L18.1667 22.582C18.2304 22.5428 18.2829 22.488 18.3193 22.4227C18.3558 22.3575 18.3749 22.284 18.3749 22.2092V18.5938ZM6.43639 14.203L9.09989 10.0905C9.20139 9.933 9.30464 9.779 9.40789 9.625H5.79064C5.7159 9.62498 5.64238 9.64411 5.57714 9.68056C5.51188 9.71702 5.45706 9.76958 5.41789 9.83325L3.31789 13.2457L6.43639 14.203ZM15.6414 6.34025C18.0202 3.96184 21.2463 2.62549 24.6102 2.625H24.9357C25.0517 2.625 25.163 2.6711 25.2451 2.75313C25.3271 2.83519 25.3732 2.94648 25.3732 3.0625V3.388C25.3733 5.05423 25.0454 6.70418 24.4079 8.24366C23.7705 9.78311 22.836 11.1819 21.6579 12.3603L20.8547 13.1617C19.5247 14.4917 18.0599 15.6765 16.4814 16.6968L12.4266 19.3218L8.67639 15.5715L11.3014 11.5167C12.3223 9.93797 13.5072 8.47149 14.8364 7.14175L15.6379 6.34025H15.6414ZM20.9999 8.75C20.9999 9.21414 20.8155 9.65925 20.4873 9.98744C20.1592 10.3156 19.714 10.5 19.2499 10.5C18.7858 10.5 18.3406 10.3156 18.0125 9.98744C17.6842 9.65925 17.4999 9.21414 17.4999 8.75C17.4999 8.28586 17.6842 7.84075 18.0125 7.51256C18.3406 7.18438 18.7858 7 19.2499 7C19.714 7 20.1592 7.18438 20.4873 7.51256C20.8155 7.84075 20.9999 8.28586 20.9999 8.75ZM6.22989 25.48C6.48779 25.2397 6.69466 24.9499 6.83812 24.6279C6.9816 24.3059 7.05874 23.9584 7.06496 23.6058C7.07119 23.2533 7.00635 22.9033 6.87433 22.5764C6.74229 22.2495 6.54578 21.9527 6.29653 21.7033C6.04726 21.4541 5.75034 21.2576 5.42349 21.1257C5.09663 20.9935 4.74652 20.9288 4.39407 20.9349C4.0416 20.9412 3.694 21.0184 3.372 21.1617C3.05002 21.3052 2.7602 21.512 2.51989 21.77C1.23539 23.0475 0.687641 25.851 0.507391 27.0252C0.496733 27.0886 0.501366 27.1535 0.520901 27.2146C0.540436 27.2757 0.574309 27.3313 0.619692 27.3766C0.665076 27.4221 0.720655 27.4559 0.781791 27.4755C0.842929 27.495 0.90785 27.4997 0.971141 27.489C2.14539 27.3088 4.94889 26.761 6.22989 25.48Z" fill="#0075ff"/></svg>
